X: 10052
T: Grazioso
C: Mr Bossi
B: "Man of Feeling", Gaetano Brandi, ed. p.5 #2
F: http://archive.org/details/manoffeelingorge00rugg
Z: 2012 John Chambers <jc:trillian.mit.edu>
M: 6/8
L: 1/8
P: "Grazioso"
K: G
D |\
GAB cde | (d3 g)dB | (dcB) (Adc) | BGG G2D |\
GAB cde | (d3 g)B^c | dAF GEA | D2z z2d |
(db)d (ca)c | (Bg)B A2d | (db)d (ca)c | (Bg)B A2D |\
GAB cde | d3 gdB | ABc DEF | G3 |]
%
%%center -

%%sep 2 1 500
%%sep 1 1 500

